assets/images/members/cryptas/cryptas.svg

<svg xmlns="http://www.w3.org/2000/svg" xml:space="preserve" style="fill-rule:evenodd;clip-rule:evenodd;stroke-linejoin:round;stroke-miterlimit:2" viewBox="0 0 327 70"><path d="M285.569 80.252v8.987l2.938 1.697.004-8.988 18.505-10.684-2.939-1.697zm76.694-10.298v-1.322h-2.938v20.277h2.938v-7.347c4.69 3.449 11.461.139 11.461-5.804 0-5.939-6.768-9.255-11.461-5.804m-12.999 7.432-3.901-8.755h-3.217l5.509 12.365-3.525 7.912h3.217l9.035-20.277h-3.217zm-42.248-.525-13.658 7.885-.003 3.391 13.659-7.886zm-29.228 7.886v-8.989l18.505-10.683 2.936 1.693-18.454 10.687-.052 8.99zm119.838-14.793c-4.69-3.449-11.461-.139-11.461 5.804 0 5.939 6.768 9.255 11.461 5.804v1.322h2.939V68.632h-2.939zm14.421 5.804c-1.678-1.56-3.963-1.262-4.939-2.126-1.047-.927.032-2.135 1.454-2.135 1.021 0 1.874.629 1.874 1.322h2.938c0-2.353-2.154-4.261-4.812-4.261-2.657 0-4.812 1.908-4.812 4.261 0 1.934 1.447 3.539 3.386 4.071 2.181.602 2.101.57 2.269.632.514.193 1.031.626 1.031 1.174 0 .9-1.423 1.659-2.716 1.175-.515-.193-1.031-.626-1.031-1.175h-2.939c0 2.354 2.155 4.262 4.812 4.262 4.257 0 6.369-4.519 3.485-7.2m-90.043-4.261a4.26 4.26 0 0 1 3.947 2.65h3.072a7.2 7.2 0 1 0-.004 3.24h-3.076a4.26 4.26 0 0 1-3.939 2.632 4.26 4.26 0 0 1-4.261-4.261 4.26 4.26 0 0 1 4.261-4.261m57.602-8.89h-2.938v13.722a6.555 6.555 0 0 0 6.555 6.555v-2.939a3.614 3.614 0 0 1-3.617-3.616V71.57h3.617v-2.939h-3.617zm-40.404 6.025a7.16 7.16 0 0 0-4.298 1.396v-1.396h-2.938v14.252h2.938v-7.053c0-2.355 1.943-4.261 4.298-4.261zm-50.693-8.053L270 71.265v8.985l2.94 1.698.005-8.979 18.501-10.693zm81.028 18.192c-2.699 2.699-7.274.743-7.274-3.014a4.26 4.26 0 0 1 4.261-4.26c3.815 0 5.67 4.617 3.013 7.274m20.815 0a4.26 4.26 0 0 1 0-6.026c2.698-2.698 7.274-.743 7.274 3.013 0 3.76-4.58 5.707-7.274 3.013" style="fill:#84d1e0;fill-rule:nonzero" transform="translate(-614.244 -137.818)scale(2.27498)"/></svg>

<?xml version="1.0" encoding="UTF-8" standalone="no"?>
<!DOCTYPE svg PUBLIC "-//W3C//DTD SVG 1.1//EN" "http://www.w3.org/Graphics/SVG/1.1/DTD/svg11.dtd">
<svg viewBox="0 0 327 70" version="1.1" xmlns="http://www.w3.org/2000/svg" xmlns:xlink="http://www.w3.org/1999/xlink" xml:space="preserve" xmlns:serif="http://www.serif.com/" style="fill-rule:evenodd;clip-rule:evenodd;stroke-linejoin:round;stroke-miterlimit:2;">
    <g transform="matrix(1,0,0,1,-537,-89.9384)">
        <g transform="matrix(1,0,0,1,0,-5000)">
            <g transform="matrix(2.27498,0,0,2.27498,-77.2442,4952.12)">
                <path d="M285.569,80.252L285.569,89.239L288.507,90.936L288.511,81.948L307.016,71.264L304.077,69.567L285.569,80.252ZM362.263,69.954L362.263,68.632L359.325,68.632L359.325,88.909L362.263,88.909L362.263,81.562C366.953,85.011 373.724,81.701 373.724,75.758C373.724,69.819 366.956,66.503 362.263,69.954ZM349.264,77.386L345.363,68.631L342.146,68.631L347.655,80.996L344.13,88.908L347.347,88.908L356.382,68.631L353.165,68.631L349.264,77.386ZM307.016,76.861L293.358,84.746L293.355,88.137L307.014,80.251L307.016,76.861ZM277.788,84.747L277.788,75.758L296.293,65.075L299.229,66.768L280.775,77.455L280.723,86.445L277.788,84.747ZM397.626,69.954C392.936,66.505 386.165,69.815 386.165,75.758C386.165,81.697 392.933,85.013 397.626,81.562L397.626,82.884L400.565,82.884L400.565,68.632L397.626,68.632L397.626,69.954ZM412.047,75.758C410.369,74.198 408.084,74.496 407.108,73.632C406.061,72.705 407.14,71.497 408.562,71.497C409.583,71.497 410.436,72.126 410.436,72.819L413.374,72.819C413.374,70.466 411.22,68.558 408.562,68.558C405.905,68.558 403.75,70.466 403.75,72.819C403.75,74.753 405.197,76.358 407.136,76.89C409.317,77.492 409.237,77.46 409.405,77.522C409.919,77.715 410.436,78.148 410.436,78.696C410.436,79.596 409.013,80.355 407.72,79.871C407.205,79.678 406.689,79.245 406.689,78.696L403.75,78.696C403.75,81.05 405.905,82.958 408.562,82.958C412.819,82.958 414.931,78.439 412.047,75.758ZM322.004,71.497C323.811,71.497 325.325,72.614 325.951,74.147L329.023,74.147C328.291,70.946 325.427,68.558 322.004,68.558C318.028,68.558 314.804,71.782 314.804,75.758C314.804,79.734 318.028,82.958 322.004,82.958C325.42,82.958 328.281,80.579 329.019,77.387L325.943,77.387C325.314,78.908 323.807,80.019 322.004,80.019C319.649,80.019 317.743,78.113 317.743,75.758C317.743,73.403 319.649,71.497 322.004,71.497ZM379.606,62.607L376.668,62.607L376.668,76.329C376.668,79.949 379.602,82.884 383.223,82.884L383.223,79.945C381.224,79.945 379.606,78.328 379.606,76.329L379.606,71.57L383.223,71.57L383.223,68.631L379.606,68.631L379.606,62.607ZM339.202,68.632C337.605,68.624 336.116,69.136 334.904,70.028L334.904,68.632L331.966,68.632L331.966,82.884L334.904,82.884L334.904,75.831C334.904,73.476 336.847,71.57 339.202,71.57L339.202,68.632ZM288.509,60.579L270,71.265L270,80.25L272.94,81.948L272.945,72.969L291.446,62.276L288.509,60.579ZM369.537,78.771C366.838,81.47 362.263,79.514 362.263,75.757C362.263,73.403 364.169,71.497 366.524,71.497C370.339,71.497 372.194,76.114 369.537,78.771ZM390.352,78.771C388.687,77.106 388.687,74.41 390.352,72.745C393.05,70.047 397.626,72.002 397.626,75.758C397.626,79.518 393.046,81.465 390.352,78.771Z" style="fill:rgb(132,209,224);fill-rule:nonzero;"/>
            </g>
        </g>
    </g>
</svg>
